X:1
T:Title
%%score ( 1 2 ) { ( 3 5 ) | 4 }
L:1/8
Q:1/4=107
M:4/4
K:C
V:1 treble nm="Grand Piano, Soprano"
V:2 treble 
V:3 bass nm="Choir Pad, From the Cyber Hymnal™"
V:5 bass 
V:4 bass 
V:1
 z8 | z8 | z8 | z8 | z8 | z8 | z4 z2 d2- | d z z2 z4 | [FG]2 [EG]2- [EG][EG][EG][Gc] | %9
 [FB][Ec] [Gd]6 | G2 [Fd]2- [Fd][Fd][Fd][Gd] | [Gc][Gd] [Ge]6 | [Ge]2 [^Ge]2- [Ge][Gd] [Ec]2- | %13
 [Ec][Ec] [Fd]2 [FA]2 [FA]2 | [_EA]2 [=EG]2- [EG][Ec][Fc][FB] | z2 c6- | c6 z2 |] %17
V:2
 [CE]2 [CE]2 [DF]2 [EG]2- | [EG][EG] [FA]2 [EG]2 [Ec]2- | [Ec][Ec] [_EB]2 [EA]2 [=EG]2- | %3
 [EG][CE] [CG]2 [CE]2 [B,D]2- | [B,D][B,D] [CE]2 [B,F]2 [CG]2- | [CG][EG] [_EA]2 [=EG]2 [Ec]2- | %6
 [Ec][Ec] [DB]2 [DA]2 DG- | G[GB] [^FB]2 [FA]2 [DG]2 | x8 | x8 | x8 | x8 | x8 | x8 | x8 | %15
 [FA][FB]EE FF E2- | E6 z2 |] %17
V:3
 G,2 G,2 G,2 C2- | C[K:treble]C C2 C2 G,2- | G,[K:bass]G, ^F,2 F,2 G,2- | G,G, G,2 G,2 G,2- | %4
 G,G, G,2 G,2 G,2- | G,[K:treble]C C2 C2 G,2- | G,[K:bass]G, G,2 ^F,2 B,2- | %7
 B,[K:treble]D D2 D2 B,2 | z2 C4[K:bass] z2 | G,G, B,6 | z2 z G, G,B,B,B, | G,B, C4 z2 | %12
 C2 B,2- B,B, A,2- | A,A, A,2[K:treble] C2 C2 | C2 C2- CCDD | DDC[K:bass]G, A,A, G,2- | G,6 z2 |] %17
V:4
 C,2 C,2 C,2 C,2- | C,C, C,2 C,2 C,2- | C,C, C,2 C,2 C,2- | C,C, E,2 C,2 G,,2- | %4
 G,,G,, C,2 D,2 E,2- | E,C, C,2 C,2 C,2- | C,C, D,2 D,2 D,2- | D,D, D,2 D,2 G,,2 | z4 z C,C,D, | %9
 D,C,G,G,, B,,D, G,2 | B,2 B,2- B,G,G,F, | E,D,C,C, E,G, C2 | C,2 E,2- E,E, z2 | z2 F,2 F,2 F,2 | %14
 _E,2 G,2- G,G,G,G, | G,G, C,6- | C,6 z2 |] %17
V:5
 x8 | x[K:treble] x7 | x[K:bass] x7 | x8 | x8 | x[K:treble] x7 | x[K:bass] x7 | x[K:treble] x7 | %8
 B,2 z[K:bass] C, C,CCC | x8 | x8 | x8 | x8 | x4[K:treble] x4 | x8 | x3[K:bass] x5 | x8 |] %17

